X: 1
T: Glen Aln, The
M: 4/4
L: 1/8
R: hornpipe
K: Gmaj
(3DEF|GDB,D GBdB|gf (3efg dBGF|EGce DGBd|Agfe (3ded (3cBA|
GDB,D GBdB|gf (3efg dBGF|EecA DdBG|(3FED (3cBA G2:|
|:(3Bc^c|dBGB dBgd|(3efg dg BdGB|cAaA cAag|(3fga (3gfe (3ded (3Bc^c|
dBGB dBgd|(3efg dg BgGF|EecA DdBG|(3FED (3cBA G2:|
